build/flags/China.svg

<svg xmlns="http://www.w3.org/2000/svg" fill="none" viewBox="0 0 28 28" focusable="false"><defs><filter id="China_svg__a"><feColorMatrix values="0 0 0 0 1 0 0 0 0 1 0 0 0 0 1 0 0 0 1 0"/></filter></defs><mask id="China_svg__b" width="28" height="20" x="0" y="4" maskUnits="userSpaceOnUse"><g filter="url(#China_svg__a)"><rect width="28" height="20" y="4" fill="#FFF" rx="3"/><rect width="28" height="20" y="4" stroke="#969696" stroke-opacity="0" stroke-width="0" rx="3"/></g></mask><path fill="none" d="M0 0H28V28H0z"/><rect width="28" height="20" y="4" fill="#FFF" rx="3"/><rect width="28" height="20" y="4" rx="3"/><g mask="url(#China_svg__b)"><path fill="#F1361D" d="M0 4H28V24H0z"/><path d="M0 4H28V24H0z"/><path fill="#FFDC42" fill-rule="evenodd" d="M11.0411 7.26583L10.0726 7.10073L10.7341 6.37439L10.8992 5.40594L11.6256 6.06744L12.594 6.23255L11.9325 6.95888L11.7674 7.92733L11.0411 7.26583ZM13.5059 9.97725L12.6667 10.488L12.6894 9.50585L12.1786 8.66664L13.1608 8.68935L14 8.1786L13.9773 9.16076L14.488 9.99997L13.5059 9.97725ZM13.2176 13.3232L12.2411 13.4314L12.6768 12.5509L12.5686 11.5744L13.4491 12.0101L14.4255 11.9019L13.9899 12.7824L14.0981 13.7588L13.2176 13.3232ZM11.5282 15.9708L10.7074 16.5106L10.6958 15.5282L10.1561 14.7073L11.1384 14.6958L11.9593 14.156L11.9709 15.1384L12.5106 15.9593L11.5282 15.9708Z"/><path d="M11.0411 7.26583L10.0726 7.10073L10.7341 6.37439L10.8992 5.40594L11.6256 6.06744L12.594 6.23255L11.9325 6.95888L11.7674 7.92733L11.0411 7.26583ZM13.5059 9.97725L12.6667 10.488L12.6894 9.50585L12.1786 8.66664L13.1608 8.68935L14 8.1786L13.9773 9.16076L14.488 9.99997L13.5059 9.97725ZM13.2176 13.3232L12.2411 13.4314L12.6768 12.5509L12.5686 11.5744L13.4491 12.0101L14.4255 11.9019L13.9899 12.7824L14.0981 13.7588L13.2176 13.3232ZM11.5282 15.9708L10.7074 16.5106L10.6958 15.5282L10.1561 14.7073L11.1384 14.6958L11.9593 14.156L11.9709 15.1384L12.5106 15.9593L11.5282 15.9708Z"/><path fill="#FFDC42" fill-rule="evenodd" d="M6.66666 12.2267L4.31552 13.9028L5.18301 11.1488L2.86243 9.43062L5.74971 9.40462L6.66666 6.66669L7.5836 9.40462L10.4709 9.43062L8.1503 11.1488L9.0178 13.9028L6.66666 12.2267Z"/><path d="M4.31552 13.9028L5.18301 11.1488L2.86243 9.43062L5.74971 9.40462L6.66666 6.66669L7.5836 9.40462L10.4709 9.43062L8.1503 11.1488L9.0178 13.9028L6.66666 12.2267L4.31552 13.9028Z"/></g></svg>

<svg xmlns="http://www.w3.org/2000/svg" fill="none" viewBox="0 0 28 28" focusable="false"><path fill="none" d="M0 0h28v28H0z"/><rect width="28" height="20" y="4" fill="#FFF" rx="3"/><rect width="28" height="20" y="4" rx="3"/><mask id="China_svg__a" width="28" height="20" x="0" y="4" mask-type="alpha" maskUnits="userSpaceOnUse"><rect width="28" height="20" y="4" fill="#FFF" rx="3"/><rect width="28" height="20" y="4" stroke="#979797" stroke-opacity="0" stroke-width="0" rx="3"/></mask><g mask="url(#China_svg__a)"><path fill="#F1361D" d="M0 4h28v20H0z"/><path d="M0 4h28v20H0z"/></g><g mask="url(#China_svg__a)"><mask id="China_svg__b" fill="#fff"><path fill-rule="evenodd" d="m10.073 7.1.968.166.726.661.165-.968.662-.726-.968-.166-.727-.661-.165.968zm3.433 2.877-.84.511.023-.982-.51-.84.982.023.839-.51-.023.982.511.839zm-1.265 3.454.977-.108.88.436-.108-.977.435-.88-.976.108-.88-.435.108.976zm-.713 2.54-.82.54-.012-.983-.54-.82.982-.012.821-.54.012.982.54.821z" clip-rule="evenodd"/></mask><path fill="#FFDC42" fill-rule="evenodd" d="m10.073 7.1.968.166.726.661.165-.968.662-.726-.968-.166-.727-.661-.165.968zm3.433 2.877-.84.511.023-.982-.51-.84.982.023.839-.51-.023.982.511.839zm-1.265 3.454.977-.108.88.436-.108-.977.435-.88-.976.108-.88-.435.108.976zm-.713 2.54-.82.54-.012-.983-.54-.82.982-.012.821-.54.012.982.54.821z" clip-rule="evenodd" mask="url(#China_svg__b)"/></g><g mask="url(#China_svg__a)"><path fill="#FFDC42" fill-rule="evenodd" d="M6.66 12.22 4.31 13.9l.87-2.76-2.32-1.71 2.88-.03.92-2.74.92 2.74 2.89.03-2.32 1.71.86 2.76z"/><path d="m4.31 13.9.87-2.76-2.32-1.71 2.88-.03.92-2.74.92 2.74 2.89.03-2.32 1.71.86 2.76-2.35-1.68z"/></g></svg>
